src/assets/icons/days,simple,tuesday.svg

<svg width="48" height="48" viewBox="0 0 48 48" fill="none" xmlns="http://www.w3.org/2000/svg">
<rect opacity="0.2" x="5" y="5" width="38" height="38" rx="4" fill="black"/>
<path d="M5 13C5 9.22876 5 7.34315 6.17157 6.17157C7.34315 5 9.22876 5 13 5H35C38.7712 5 40.6569 5 41.8284 6.17157C43 7.34315 43 9.22876 43 13V15H5V13Z" fill="black"/>
<path d="M12.552 23.9901H17.0051V36H20.0449V23.9901H24.498V21.4545H12.552V23.9901ZM31.9199 31.3551C31.927 32.8182 30.9256 33.5852 29.839 33.5852C28.6955 33.5852 27.9569 32.7827 27.9498 31.4972V25.0909H24.9242V32.0369C24.9313 34.5866 26.4228 36.142 28.6174 36.142C30.258 36.142 31.437 35.2969 31.927 34.0185H32.0407V36H34.9455V25.0909H31.9199V31.3551Z" fill="black"/>
</svg>

<svg xmlns="http://www.w3.org/2000/svg" width="48" height="48" fill="none" viewBox="0 0 48 48">
  <rect width="38" height="38" x="5" y="5" fill="#000" opacity=".2" rx="4"/>
  <path fill="#000" d="M5 13c0-3.771 0-5.657 1.172-6.828C7.343 5 9.229 5 13 5h22c3.771 0 5.657 0 6.828 1.172C43 7.343 43 9.229 43 13v2H5v-2zM12.552 23.99h4.453V36h3.04V23.99h4.453v-2.535H12.552v2.535zm19.368 7.365c.007 1.463-.994 2.23-2.081 2.23-1.143 0-1.882-.802-1.89-2.088v-6.406h-3.025v6.946c.007 2.55 1.499 4.105 3.693 4.105 1.641 0 2.82-.845 3.31-2.123h.114V36h2.905V25.09H31.92v6.265z"/>
</svg>
